src/circle-question-mark-empty.svg

<svg xmlns="http://www.w3.org/2000/svg" class="dibsvg-svg dibsvg-circle-question-mark-empty" viewBox="0 0 518 507">
    <path d="M258.6.4C116 .4 0 114.2 0 253.7S116 507 258.6 507c142.6 0 258.6-113.8 258.6-253.3S401.2.4 258.6.4zm0 467.5c-121 0-218.8-95.9-218.8-214.2 0-118.3 97.8-214.2 218.8-214.2 121 0 218.8 95.9 218.8 214.2 0 118.3-97.8 214.2-218.8 214.2z"/>
    <path d="M255.6 349.3c-5.3 0-9.9 1.9-13.7 6.1-3.8 4.2-5.7 8.7-5.7 14.4 0 5.7 1.9 10.2 5.7 14.4 3.8 4.2 8.3 6.1 13.7 6.1 5.3 0 9.9-1.9 13.7-6.1 3.8-4.2 5.7-8.7 5.7-14.4 0-5.7-1.9-10.2-5.7-14.4-3.9-3.9-8.4-6.1-13.7-6.1z"/>
    <path d="M303.7 134.3c-4.6-4.9-10.6-8.7-18.2-12.1-7.6-3-17.4-4.6-29.2-4.6-9.1 0-17.1 1.1-23.9 3.4-6.8 2.3-12.5 5.7-17.1 9.9-4.6 4.2-8 9.5-10.2 15.2-2.3 5.7-3.4 11.8-3.8 18.6h25v-2.3c0-4.6.8-8.7 2.7-12.5 1.9-3.8 4.2-7.2 7.2-9.9s6.4-4.9 10.2-6.4c3.8-1.5 8-2.3 11.8-2.3 3.8 0 7.6.8 11.8 2.3 3.8 1.5 7.6 3.4 10.6 6.1 3 2.7 5.7 5.7 7.6 9.5 1.9 3.8 3 7.6 3 12.1 0 8-1.9 14.8-5.3 21.2-3.4 6.4-8 12.5-12.9 18.2-5.3 5.7-10.6 11.4-16.7 17.1-6.1 5.7-11.8 11.4-17.1 17.4-5.3 6.1-9.9 12.5-13.7 19.3-3.8 6.8-5.7 14.4-6.4 23.1v3.8c0 5.7.8 11.4 2.7 16.3 1.5 5.3 4.2 9.5 7.6 13.7 3.4 3.8 7.6 6.8 12.5 9.1s11 3.4 17.8 3.4c6.1 0 12.5-1.9 19.7-6.1 7.2-4.2 13.3-9.5 19-16.7l-17.1-12.5c-3.8 4.9-8 9.5-12.5 13.7-4.6 4.2-9.5 6.1-15.2 6.1-2.7 0-5.7-1.5-8.7-4.2-3-3-4.6-6.8-4.6-11.8 0-6.8 1.9-13.3 5.7-19.7 3.8-6.4 8.3-12.5 13.7-18.6 5.4-6.1 11.4-12.1 18.2-18.6 6.4-6.1 12.5-12.5 18.2-19.3 5.3-6.8 10.2-14 13.7-21.6 3.8-7.6 5.7-15.9 5.7-24.6 0-6.4-.8-12.5-2.7-19-1.5-6.5-4.5-11.8-9.1-16.7z"/>
</svg>

<svg xmlns="http://www.w3.org/2000/svg" class="dibsvg-svg dibsvg-circle-question-mark-empty" viewBox="0 0 518 507">
    <path d="M258.6,0.4 C116,0.4 0,114.2 0,253.7 C0,393.2 116,507 258.6,507 C401.2,507 517.2,393.2 517.2,253.7 C517.2,114.2 401.2,0.4 258.6,0.4 L258.6,0.4 L258.6,0.4 L258.6,0.4 Z M258.6,467.9 C137.6,467.9 39.8,372 39.8,253.7 C39.8,135.4 137.6,39.5 258.6,39.5 C379.6,39.5 477.4,135.4 477.4,253.7 C477.4,372 379.6,467.9 258.6,467.9 L258.6,467.9 L258.6,467.9 L258.6,467.9 Z"/>
    <path d="M255.6,349.3 C250.3,349.3 245.7,351.2 241.9,355.4 C238.1,359.6 236.2,364.1 236.2,369.8 C236.2,375.5 238.1,380 241.9,384.2 C245.7,388.4 250.2,390.3 255.6,390.3 C260.9,390.3 265.5,388.4 269.3,384.2 C273.1,380 275,375.5 275,369.8 C275,364.1 273.1,359.6 269.3,355.4 C265.4,351.5 260.9,349.3 255.6,349.3 L255.6,349.3 L255.6,349.3 Z"/>
    <path d="M303.7,134.3 C299.1,129.4 293.1,125.6 285.5,122.2 C277.9,119.2 268.1,117.6 256.3,117.6 C247.2,117.6 239.2,118.7 232.4,121 C225.6,123.3 219.9,126.7 215.3,130.9 C210.7,135.1 207.3,140.4 205.1,146.1 C202.8,151.8 201.7,157.9 201.3,164.7 L226.3,164.7 L226.3,162.4 C226.3,157.8 227.1,153.7 229,149.9 C230.9,146.1 233.2,142.7 236.2,140 C239.2,137.3 242.6,135.1 246.4,133.6 C250.2,132.1 254.4,131.3 258.2,131.3 C262,131.3 265.8,132.1 270,133.6 C273.8,135.1 277.6,137 280.6,139.7 C283.6,142.4 286.3,145.4 288.2,149.2 C290.1,153 291.2,156.8 291.2,161.3 C291.2,169.3 289.3,176.1 285.9,182.5 C282.5,188.9 277.9,195 273,200.7 C267.7,206.4 262.4,212.1 256.3,217.8 C250.2,223.5 244.5,229.2 239.2,235.2 C233.9,241.3 229.3,247.7 225.5,254.5 C221.7,261.3 219.8,268.9 219.1,277.6 L219.1,281.4 C219.1,287.1 219.9,292.8 221.8,297.7 C223.3,303 226,307.2 229.4,311.4 C232.8,315.2 237,318.2 241.9,320.5 C246.8,322.8 252.9,323.9 259.7,323.9 C265.8,323.9 272.2,322 279.4,317.8 C286.6,313.6 292.7,308.3 298.4,301.1 L281.3,288.6 C277.5,293.5 273.3,298.1 268.8,302.3 C264.2,306.5 259.3,308.4 253.6,308.4 C250.9,308.4 247.9,306.9 244.9,304.2 C241.9,301.2 240.3,297.4 240.3,292.4 C240.3,285.6 242.2,279.1 246,272.7 C249.8,266.3 254.3,260.2 259.7,254.1 C265.1,248 271.1,242 277.9,235.5 C284.3,229.4 290.4,223 296.1,216.2 C301.4,209.4 306.3,202.2 309.8,194.6 C313.6,187 315.5,178.7 315.5,170 C315.5,163.6 314.7,157.5 312.8,151 C311.3,144.5 308.3,139.2 303.7,134.3 L303.7,134.3 L303.7,134.3 Z"/>
</svg>
